src/components/common/icons/boots.svg

<svg height="48" viewBox="0 0 46 48" width="46" xmlns="http://www.w3.org/2000/svg"><path d="m41.5525379 4.7328-.0486207 30.7616h-.0145862-36.43958617c.423-.8048 1.11503448-1.4656 1.98534483-1.8528l13.69158624-5.8816c3.5120344-1.5088 5.7793793-4.9264 5.7712758-8.704l-.004862-14.3232zm4.1165518-4.056h-23.2325863-.051862l.0064827 18.3808c.0032414 2.1616-1.2965517 4.12-3.3029655 4.9824l-13.70779308 5.8896c-2.98855173 1.3104-4.91231035 4.2352-4.91231035 7.4592v6.4528s3.67410345 3.4704 6.94627586 3.4704c2.46182759 0 3.79241377-.704 4.86531037-1.2704.8654483-.4592 1.4894138-.7904 2.9204827-.7904 1.431069 0 2.0582759.3312 2.9221035.7904 1.0712758.5664 2.4018621 1.2704 4.8653103 1.2704 2.4634483 0 3.7972759-.704 4.8669311-1.2704.8654482-.4592 1.4926551-.7904 2.9237241-.7904 1.4278276 0 2.0550345.3312 2.9204828.7904 1.0696551.5664 2.4034827 1.2704 4.8653103 1.2704 3.1554828 0 7.0354138-3.2336 7.0354138-3.2336zm-38.25475867 42.5792c-1.38406896 0-2.29003448-.664-2.83620689-1.2848v-2.4224h36.91120686s-.0016207 2.616-.0032413 2.616c-.5445518.5376-1.3176207 1.0352-2.9221035 1.0912-.0842759.0032-.1653103.0048-.2463448.0048-1.2576552 0-1.8621724-.3616-2.6757586-.7952-1.0712759-.5664-2.4034828-1.2704-4.8636897-1.2704-2.465069 0-3.7956552.704-4.8653103 1.2704-.867069.4592-1.4910345.7904-2.9253449.7904-1.4310689 0-2.0566551-.3312-2.9237241-.7904-1.0696552-.5664-2.4002414-1.2704-4.8636897-1.2704-2.4618275 0-3.7956551.704-4.8653103 1.2704-.86544828.4592-1.49103449.7904-2.92048277.7904z" fill="#010202" fill-rule="evenodd"/></svg>

<?xml version="1.0" encoding="UTF-8"?>
<svg width="46px" height="48px" viewBox="0 0 46 48" version="1.1" xmlns="http://www.w3.org/2000/svg" xmlns:xlink="http://www.w3.org/1999/xlink">
    <!-- Generator: Sketch 52.5 (67469) - http://www.bohemiancoding.com/sketch -->
    <title>Icons/.boots</title>
    <desc>Created with Sketch.</desc>
    <g id="Vapaaehtoisalusta-Layouts" stroke="none" stroke-width="1" fill="none" fill-rule="evenodd">
        <g id="HKI-Ikonit" transform="translate(-177.000000, -247.000000)" fill="#010202">
            <g id="Icons/.boots" transform="translate(177.000000, 247.000000)">
                <path d="M41.5525379,4.7328 L41.5039172,35.4944 L41.489331,35.4944 L5.04974483,35.4944 C5.47274483,34.6896 6.16477931,34.0288 7.03508966,33.6416 L20.7266759,27.76 C24.2387103,26.2512 26.5060552,22.8336 26.4979517,19.056 L26.4930897,4.7328 L41.5525379,4.7328 Z M45.6690897,0.6768 L22.4365034,0.6768 L22.3846414,0.6768 L22.3911241,19.0576 C22.3943655,21.2192 21.0945724,23.1776 19.0881586,24.04 L5.38036552,29.9296 C2.39181379,31.24 0.468055172,34.1648 0.468055172,37.3888 L0.468055172,43.8416 C0.468055172,43.8416 4.14215862,47.312 7.41433103,47.312 C9.87615862,47.312 11.2067448,46.608 12.2796414,46.0416 C13.1450897,45.5824 13.7690552,45.2512 15.2001241,45.2512 C16.6311931,45.2512 17.2584,45.5824 18.1222276,46.0416 C19.1935034,46.608 20.5240897,47.312 22.9875379,47.312 C25.4509862,47.312 26.7848138,46.608 27.854469,46.0416 C28.7199172,45.5824 29.3471241,45.2512 30.7781931,45.2512 C32.2060207,45.2512 32.8332276,45.5824 33.6986759,46.0416 C34.768331,46.608 36.1021586,47.312 38.5639862,47.312 C41.719469,47.312 45.5994,44.0784 45.5994,44.0784 L45.6690897,0.6768 Z M7.41433103,43.256 C6.03026207,43.256 5.12429655,42.592 4.57812414,41.9712 L4.57812414,39.5488 L41.489331,39.5488 C41.489331,39.5488 41.4877103,42.1648 41.4860897,42.1648 C40.9415379,42.7024 40.168469,43.2 38.5639862,43.256 C38.4797103,43.2592 38.3986759,43.2608 38.3176414,43.2608 C37.0599862,43.2608 36.455469,42.8992 35.6418828,42.4656 C34.5706069,41.8992 33.2384,41.1952 30.7781931,41.1952 C28.3131241,41.1952 26.9825379,41.8992 25.9128828,42.4656 C25.0458138,42.9248 24.4218483,43.256 22.9875379,43.256 C21.556469,43.256 20.9308828,42.9248 20.0638138,42.4656 C18.9941586,41.8992 17.6635724,41.1952 15.2001241,41.1952 C12.7382966,41.1952 11.404469,41.8992 10.3348138,42.4656 C9.46936552,42.9248 8.84377931,43.256 7.41433103,43.256 Z" id="Fill-56"></path>
            </g>
        </g>
    </g>
</svg>
